X: 15254
T: Girl Of The House, The
R: jig
M: 6/8
K: Dmixolydian
AG|:F2D DFG|AcA GEA|FAF AGE|~F3 FAG|
~F3 ~G3|~A3 cde|dcA GEA|1 DED D2G:|2 DED D2B||
|:c2B AGF|~G3 GFG|AdB cAG|Ad^c d2e|
fed cAG|FAF GED|dcA GEA|1 DED D2B:|2 DED D2G||

